X: 2276
M: 6/8
L: 1/8
K: Bb
uF |\
cAF dBG | c3 (A2B) | cAF dcB | A3 (c2^c) |\
dAA ABc | B3 (A2B) | cGG GAB | A3 c2 |]


